pim-2023/src/assets/cinemaIcon.svg

<svg width="100" height="110" viewBox="0 0 100 110" fill="#D2D2D2" xmlns="http://www.w3.org/2000/svg">
<path d="M83.6307 0.660602L64.7828 6.80793L80.2969 22.9894L89.7396 19.8628L83.6307 0.660602ZM50.6808 11.3891L41.2323 14.4656L56.7897 30.5913L66.1891 27.5204L50.6808 11.3891ZM27.1736 18.991L17.7367 22.1677L33.2941 38.2934L42.6935 35.2225L27.1736 18.991ZM3.64051 26.799L-1.06209 28.3093C-3.55373 29.1256 -5.62135 30.9185 -6.81097 33.2943C-8.00059 35.6702 -8.21497 38.4349 -7.40704 40.9812L-4.35259 50.5823L19.1488 42.9303L3.64051 26.799ZM-4.35259 50.5823L1.45896 100.701C1.76723 103.359 3.09773 105.789 5.15778 107.455C7.21783 109.121 9.83868 109.887 12.4438 109.585L91.0237 100.473C96.4752 99.8412 100.329 94.8739 99.6839 89.3107L93.8724 39.1925L-4.35259 50.5823Z" fill="#D2D2D2"/>
</svg>

<svg width="100" height="110" viewBox="0 0 100 110" fill="#D2D2D2" xmlns="http://www.w3.org/2000/svg"><path d="M83.63.66 64.784 6.809 80.298 22.99l9.443-3.126L83.63.66ZM50.68 11.39l-9.448 3.076L56.79 30.59l9.4-3.07-15.51-16.132Zm-23.505 7.6-9.437 3.177 15.557 16.125 9.4-3.07-15.52-16.232ZM3.64 26.799l-4.703 1.51a9.882 9.882 0 0 0-5.749 4.985 10.26 10.26 0 0 0-.596 7.687l3.054 9.601L19.15 42.93 3.64 26.8Zm-7.994 23.783 5.812 50.119a10.197 10.197 0 0 0 3.699 6.754 9.79 9.79 0 0 0 7.286 2.13l78.58-9.112c5.451-.632 9.305-5.6 8.66-11.162l-5.812-50.119-98.225 11.39Z"/></svg>
